X:1
T: Girls will you take him?
C:
R:Reel
Q: 232
K:Em
M:4/4
L:1/8
|:D3E FG AF|D2 AF GE CE|D3E FG AB|cA dB cA GE|
D3E FG AF|D2 AF GE CE|D3E FG AB|cA dB cA GB|
Ad dc df ed|Ac Bd cA GB|Ad de fd eB|cA dB cA GE|
Ad dc df ed|Ac Bd cd eg|ag ef gf ed|cA dB e2 e2:|
